!!!OTL: WIE WOHL IST MIR IM DUNKELN
!!!ARE: Europa, Mitteleuropa, Deutschland, Thueringen
!!!SCT: B0240
!!!YEM: Copyright 1995, estate of Helmut Schaffrath.
**kern
*ICvox
*Ivox
*M6/8
*k[b-e-a-d-]
*A-:
{8e-
=1
4cc
8a-
4dd-
8b-
=2
4ee-
8cc
4a-}
{8g
=3
4f
8dd-
4cc
8b-
=4
4.a-
4g}
{8e-
=5
4cc
8a-
4dd-
8b-
=6
4ee-
8cc
4a-}
{8g
=7
4f
8dd-
4cc
8b-
=8
4.a-
4g}
{8ee-
=9
4ee-
8ee-
4ee-
8g
=10
4b-
8a-
4a-}
{16ff
16ee-
=11
4ee-
8ee-
8.dd-
16ff
16ee-
16dd-
=12
4dd-
8cc
4cc}
{8e-
=13
4cc
8a-
4dd-
8b-
=14
4.ee-}
{4.ff
=15
8.ee-
16cc
8a-
8g
8cc
8b-
=16
4.b-
4a-}
==
!!!AGN: Tageszeiten - Lied, Abend
!!!ONB: ESAC (Essen Associative Code) Database: BOEHME
!!!AMT: compound duple
!!!AIN: vox
!!!EED: Helmut Schaffrath
!!!EEV: 1.0
*-
